!!!OTL: JETZT REISEN WIR BRUEDER
!!!ARE: Europa, Mitteleuropa, Deutschland
!!!SCT: Z0247
!!!YEM: Copyright 1995, estate of Helmut Schaffrath.
**kern
*ICvox
*Ivox
*M3/8
*k[b-e-]
*B-:
{8f
=1
8f
8b-
8b-
=2
8b-
8b-
8dd
=3
8dd
8cc
8cc
=4
4dd}
{16cc
16dd
=5
8ee-
8dd
8dd
=6
8cc
8cc
8b-
=7
8cc
8cc
8r
=8
4r}
{8f
=9
8f
8b-
8b-
=10
8b-
8b-
8dd
=11
8dd
8cc
8cc
=12
4dd}
{16cc
16dd
=13
8ee-
8dd
8dd
=14
4cc
8b-
=15
8cc
8b-
8r
=16
4r}
{8dd
=17
4ee-
16dd
16dd
=18
4cc
8dd
=19
8ee-
8ee-
8dd
=20
4cc}
{8dd
=21
8b-
8a
8a
=22
4b-
8dd
=23
4dd
8cc
=24
4dd}
{8cc
=25
8ee-
8dd
8dd
=26
4cc
8b-
=27
8cc
8b-
8r
=28
4r}
==
!!!AGN: Handwerker - Lied
!!!ONB: ESAC (Essen Associative Code) Database: ZUCCAL
!!!AMT: simple triple
!!!AIN: vox
!!!EED: Helmut Schaffrath
!!!EEV: 1.0
*-
